X:79
T:The Dark Island
M:3/4
L:1/8
F:http://blackrosetheband.googlepages.com/ABCTUNES.ABC May 2009
S:Celtic Fiddle Festival - Encore - Track 12
R:Air
K:Am
DE |: "Am"A4 BA | "G"G4 AG | "C"E3D EG | "D"D4 GA | "G"B3A GA | Bd3 dd | "Em"B3d dB | "D"A4 DE |
"Am"A4 BA | "G"G4 AG | "C"E3D EG | "D"D4 GA | "G"B3d dB | "D"A3D BA | "C"G6 |1 "G"G4 E2 :|2 "G"G3 AB c|
|:"Em"d3 D D2 | "G"B3 D D2 | "C"E G3 E2 | "D"D4 GA | "G"B2 BAGA | Bd4 d | "Em"B3 d dB | "D"A4 E2|
"Am"A4 BA | "G"G4 AG | "C"E3D EG | "D"D4 GA | "G"B3d dB | "D"A3D BA | "C"G6 |1 "G"G3 AB c :|2 "G"G3 G2E||
